svgs/materials/action/lightbulb_outline.svg

<svg xmlns="http://www.w3.org/2000/svg" enable-background="new 0 0 24 24" height="24" viewBox="0 0 24 24" width="24"><g><rect fill="none" height="24" width="24"/></g><g><g><g><path d="M9,21c0,0.55,0.45,1,1,1h4c0.55,0,1-0.45,1-1v-1H9V21z M12,2C8.14,2,5,5.14,5,9c0,2.38,1.19,4.47,3,5.74V17 c0,0.55,0.45,1,1,1h6c0.55,0,1-0.45,1-1v-2.26c1.81-1.27,3-3.36,3-5.74C19,5.14,15.86,2,12,2z M14,13.7V16h-4v-2.3 C8.48,12.63,7,11.53,7,9c0-2.76,2.24-5,5-5s5,2.24,5,5C17,11.49,15.49,12.65,14,13.7z"/></g></g></g></svg>

<?xml version="1.0" encoding="UTF-8" standalone="no"?>
<svg
   enable-background="new 0 0 24 24"
   height="24"
   viewBox="0 0 24 24"
   width="24"
   version="1.1"
   id="svg14"
   sodipodi:docname="lightbulb_outline.svg"
   inkscape:version="1.2 (dc2aeda, 2022-05-15)"
   xmlns:inkscape="http://www.inkscape.org/namespaces/inkscape"
   xmlns:sodipodi="http://sodipodi.sourceforge.net/DTD/sodipodi-0.dtd"
   xmlns="http://www.w3.org/2000/svg"
   xmlns:svg="http://www.w3.org/2000/svg">
  <defs
     id="defs18" />
  <sodipodi:namedview
     id="namedview16"
     pagecolor="#ffffff"
     bordercolor="#000000"
     borderopacity="0.25"
     inkscape:showpageshadow="2"
     inkscape:pageopacity="0.0"
     inkscape:pagecheckerboard="0"
     inkscape:deskcolor="#d1d1d1"
     showgrid="false"
     inkscape:zoom="9.8333333"
     inkscape:cx="12.050847"
     inkscape:cy="12"
     inkscape:window-width="1309"
     inkscape:window-height="456"
     inkscape:window-x="0"
     inkscape:window-y="25"
     inkscape:window-maximized="0"
     inkscape:current-layer="svg14" />
  <path
     id="rect2"
     style="fill:none"
     d="M 0,0 H 24 V 24 H 0 Z" />
  <path
     d="m 9,21 c 0,0.55 0.45,1 1,1 h 4 c 0.55,0 1,-0.45 1,-1 V 20 H 9 Z M 12,2 C 8.14,2 5,5.14 5,9 c 0,2.38 1.19,4.47 3,5.74 V 17 c 0,0.55 0.45,1 1,1 h 6 c 0.55,0 1,-0.45 1,-1 V 14.74 C 17.81,13.47 19,11.38 19,9 19,5.14 15.86,2 12,2 Z m 2,11.7 V 16 H 10 V 13.7 C 8.48,12.63 7,11.53 7,9 7,6.24 9.24,4 12,4 c 2.76,0 5,2.24 5,5 0,2.49 -1.51,3.65 -3,4.7 z"
     id="path6" />
</svg>
